docs/img/README-2.svg

<?xml version="1.0" encoding="UTF-8" standalone="no"?>
<svg
   version="1.2"
   width="28.18936mm"
   height="14.146263mm"
   viewBox="0 0 14.583 7.3181858"
   id="svg34"
   sodipodi:docname="README-2.svg"
   xmlns:inkscape="http://www.inkscape.org/namespaces/inkscape"
   xmlns:sodipodi="http://sodipodi.sourceforge.net/DTD/sodipodi-0.dtd"
   xmlns="http://www.w3.org/2000/svg"
   xmlns:svg="http://www.w3.org/2000/svg">
  <defs
     id="defs38" />
  <sodipodi:namedview
     id="namedview36"
     pagecolor="#ffffff"
     bordercolor="#666666"
     borderopacity="1.0"
     inkscape:pageshadow="2"
     inkscape:pageopacity="0.0"
     inkscape:pagecheckerboard="0"
     inkscape:document-units="mm" />
  <style
     text="style/css"
     id="style2"><![CDATA[
tspan { white-space: pre; }
]]></style>
  <!-- Page: 1/1 -->
  <g
     color="#7f7f7f"
     id="g14"
     transform="translate(-13.14,-3.5764144)">
    <line
       transform="translate(13.14,9.3546)"
       stroke-linejoin="round"
       stroke-linecap="round"
       stroke-width="0.094"
       stroke="currentColor"
       x1="0.046999998"
       y1="0"
       x2="14.536"
       y2="0"
       id="line4" />
    <line
       transform="translate(13.14,8.3546)"
       stroke-linejoin="round"
       stroke-linecap="round"
       stroke-width="0.094"
       stroke="currentColor"
       x1="0.046999998"
       y1="0"
       x2="14.536"
       y2="0"
       id="line6" />
    <line
       transform="translate(13.14,7.3546)"
       stroke-linejoin="round"
       stroke-linecap="round"
       stroke-width="0.094"
       stroke="currentColor"
       x1="0.046999998"
       y1="0"
       x2="14.536"
       y2="0"
       id="line8" />
    <line
       transform="translate(13.14,6.3546)"
       stroke-linejoin="round"
       stroke-linecap="round"
       stroke-width="0.094"
       stroke="currentColor"
       x1="0.046999998"
       y1="0"
       x2="14.536"
       y2="0"
       id="line10" />
    <line
       transform="translate(13.14,5.3546)"
       stroke-linejoin="round"
       stroke-linecap="round"
       stroke-width="0.094"
       stroke="currentColor"
       x1="0.046999998"
       y1="0"
       x2="14.536"
       y2="0"
       id="line12" />
  </g>
  <rect
     x="8.2566996"
     y="6.6811857"
     width="1.9578"
     height="0.19400001"
     ry="0.097000003"
     fill="currentColor"
     id="rect16" />
  <rect
     x="13.366"
     y="2.7781856"
     width="0.1222"
     height="3.3081"
     ry="0.036400001"
     fill="currentColor"
     id="rect18" />
  <path
     d="m 13.063,5.7381856 c 0.216,0 0.424,0.108 0.424,0.348 0,0.284 -0.224,0.48 -0.412,0.592 -0.144,0.084 -0.304,0.14 -0.468,0.14 -0.216,0 -0.424,-0.108 -0.424,-0.348 0,-0.284 0.224,-0.48 0.412,-0.592 0.144,-0.084 0.304,-0.14 0.468,-0.14 z"
     fill="currentColor"
     id="path20"
     style="stroke-width:0.004" />
  <polygon
     transform="translate(13.4882,2.8145856)"
     stroke-linejoin="round"
     stroke-linecap="round"
     stroke-width="0.0611"
     fill="currentColor"
     stroke="currentColor"
     points="1.0126,0.3199 -0.0306,-0.0191 -0.0306,0.4667 1.0126,0.8056 "
     id="polygon22" />
  <rect
     x="9.7659998"
     y="3.2781856"
     width="0.1222"
     height="3.3081"
     ry="0.036400001"
     fill="currentColor"
     id="rect24" />
  <path
     d="m 5.792,3.3261856 h 0.452 c 0,0.188 0.112,0.364 0.284,0.364 0.028,0 0.044,0.02 0.044,0.044 0,0.024 -0.016,0.044 -0.044,0.044 -0.172,0 -0.336,-0.052 -0.508,-0.052 -0.172,0 -0.34,0.052 -0.512,0.052 -0.028,0 -0.044,-0.02 -0.044,-0.044 0,-0.024 0.016,-0.044 0.044,-0.044 0.172,0 0.284,-0.176 0.284,-0.364 z m 0.032,-0.796 c 0.088,-0.056 0.176,-0.112 0.236,-0.196 0.044,-0.06 0.068,-0.132 0.1,-0.2 0.016,-0.04 0.084,-0.024 0.084,0.032 v 1 h 0.284 c 0.036,0 0.056,0.028 0.056,0.056 0,0.028 -0.02,0.056 -0.056,0.056 H 6.244 v 0.048 H 5.792 v -0.048 h -0.68 c -0.088,0 -0.12,-0.052 -0.12,-0.088 0,-0.008 0.004,-0.02 0.008,-0.024 0.324,-0.376 0.564,-0.828 0.564,-1.324 0,-0.04 0.032,-0.076 0.064,-0.064 0.088,0.028 0.18,0.052 0.276,0.052 0.096,0 0.188,-0.024 0.276,-0.052 0.052,-0.016 0.088,0.036 0.064,0.064 l -1.132,1.324 h 0.68 v -0.552 c 0,-0.032 0.004,-0.068 0.032,-0.084 z"
     fill="currentColor"
     id="path26"
     style="stroke-width:0.004" />
  <path
     d="m 5.792,5.3437856 h 0.452 c 0,0.188 0.112,0.364 0.284,0.364 0.028,0 0.044,0.02 0.044,0.044 0,0.024 -0.016,0.044 -0.044,0.044 -0.172,0 -0.336,-0.052 -0.508,-0.052 -0.172,0 -0.34,0.052 -0.512,0.052 -0.028,0 -0.044,-0.02 -0.044,-0.044 0,-0.024 0.016,-0.044 0.044,-0.044 0.172,0 0.284,-0.176 0.284,-0.364 z m 0.032,-0.796 c 0.088,-0.056 0.176,-0.112 0.236,-0.196 0.044,-0.06 0.068,-0.132 0.1,-0.2 0.016,-0.04 0.084,-0.024 0.084,0.032 v 1 h 0.284 c 0.036,0 0.056,0.028 0.056,0.056 0,0.028 -0.02,0.056 -0.056,0.056 H 6.244 v 0.048 H 5.792 v -0.048 h -0.68 c -0.088,0 -0.12,-0.052 -0.12,-0.088 0,-0.008 0.004,-0.02 0.008,-0.024 0.324,-0.376 0.564,-0.828 0.564,-1.324 0,-0.04 0.032,-0.076 0.064,-0.064 0.088,0.028 0.18,0.052 0.276,0.052 0.096,0 0.188,-0.024 0.276,-0.052 0.052,-0.016 0.088,0.036 0.064,0.064 l -1.132,1.324 h 0.68 v -0.552 c 0,-0.032 0.004,-0.068 0.032,-0.084 z"
     fill="currentColor"
     id="path28"
     style="stroke-width:0.004" />
  <path
     d="m 1.868,7.1501856 -0.004,0.164 h -0.02 c -0.432,0 -0.784,-0.352 -0.784,-0.784 0,-0.232 0.216,-0.416 0.452,-0.416 0.216,0 0.38,0.192 0.38,0.416 0,0.208 -0.172,0.38 -0.38,0.38 -0.044,0 -0.092,-0.012 -0.136,-0.032 0.104,0.16 0.276,0.272 0.476,0.272 z m 0.432,-3.416 c 0.02,0 0.036,-0.004 0.056,-0.004 0.62,0 1.02,0.512 1.02,1.04 0,0.304 -0.132,0.616 -0.428,0.836 -0.088,0.068 -0.188,0.112 -0.292,0.144 0.012,0.14 0.02,0.284 0.02,0.428 0,0.076 -0.004,0.152 -0.008,0.228 -0.028,0.476 -0.348,0.896 -0.804,0.908 l 0.004,-0.164 c 0.372,-0.008 0.616,-0.372 0.64,-0.768 0.004,-0.072 0.004,-0.144 0.004,-0.216 0,-0.124 -0.004,-0.252 -0.016,-0.376 -0.116,0.02 -0.232,0.032 -0.356,0.032 -0.752,0 -1.332,-0.688 -1.332,-1.492 0,-0.708 0.528,-1.228 0.996,-1.764 -0.076,-0.252 -0.14,-0.5 -0.172,-0.76 -0.024,-0.204 -0.028,-0.412 -0.028,-0.62 0,-0.46400001 0.224,-0.90400001 0.6,-1.17600001 0.02,-0.016 0.052,-0.012 0.072,0.004 0.28,0.336 0.528,0.98 0.528,1.43200001 0,0.572 -0.344,1.02 -0.724,1.456 0.08,0.276 0.152,0.552 0.22,0.832 z m 0.34,1.86 c 0.276,-0.096 0.46,-0.384 0.46,-0.66 0,-0.364 -0.272,-0.728 -0.704,-0.768 0.1,0.468 0.188,0.932 0.244,1.428 z m -1.548,-0.936 c 0,0.544 0.52,1 1.06,1 0.112,0 0.22,-0.008 0.328,-0.024 -0.056,-0.508 -0.152,-0.984 -0.256,-1.464 -0.316,0.036 -0.496,0.248 -0.496,0.48 0,0.176 0.104,0.364 0.328,0.492 0.02,0.016 0.024,0.04 0.024,0.06 0,0.044 -0.036,0.084 -0.084,0.084 -0.012,0 -0.02,-0.004 -0.032,-0.008 -0.32,-0.172 -0.468,-0.456 -0.468,-0.736 0,-0.352 0.232,-0.692 0.636,-0.784 -0.056,-0.236 -0.12,-0.476 -0.184,-0.708 -0.428,0.484 -0.856,0.968 -0.856,1.608 z m 1.432,-3.54 c 0,-0.22800001 -0.016,-0.32000001 -0.084,-0.52800001 -0.396,0.196 -0.648,0.60000001 -0.648,1.04000001 0,0.3 0.068,0.54 0.14,0.788 0.324,-0.388 0.592,-0.796 0.592,-1.3 z"
     fill="currentColor"
     id="path30"
     style="stroke-width:0.004" />
  <path
     d="m 9.463,6.2381856 c 0.216,0 0.424,0.108 0.424,0.348 0,0.284 -0.224,0.48 -0.412,0.592 -0.144,0.084 -0.304,0.14 -0.468,0.14 -0.216,0 -0.424,-0.108 -0.424,-0.348 0,-0.284 0.224,-0.48 0.412,-0.592 0.144,-0.084 0.304,-0.14 0.468,-0.14 z"
     fill="currentColor"
     id="path32"
     style="stroke-width:0.004" />
</svg>

<?xml version="1.0" encoding="UTF-8" standalone="no"?>
<svg
   version="1.2"
   width="25.66482mm"
   height="12.868698mm"
   viewBox="0 0 14.6047 7.3229998"
   id="svg34"
   sodipodi:docname="README-2.svg"
   xmlns:inkscape="http://www.inkscape.org/namespaces/inkscape"
   xmlns:sodipodi="http://sodipodi.sourceforge.net/DTD/sodipodi-0.dtd"
   xmlns="http://www.w3.org/2000/svg"
   xmlns:svg="http://www.w3.org/2000/svg">
  <defs
     id="defs38" />
  <sodipodi:namedview
     id="namedview36"
     pagecolor="#ffffff"
     bordercolor="#666666"
     borderopacity="1.0"
     inkscape:pageshadow="2"
     inkscape:pageopacity="0.0"
     inkscape:pagecheckerboard="0"
     inkscape:document-units="mm" />
  <style
     text="style/css"
     id="style2"><![CDATA[
tspan { white-space: pre; }
]]></style>
  <!-- Page: 1/1 -->
  <g
     color="#7f7f7f"
     id="g14"
     transform="translate(-14.454,-3.8303)">
    <line
       transform="translate(14.454,9.6093)"
       stroke-linejoin="round"
       stroke-linecap="round"
       stroke-width="0.1"
       stroke="currentColor"
       x1="0.050000001"
       y1="0"
       x2="14.5547"
       y2="0"
       id="line4" />
    <line
       transform="translate(14.454,8.6093)"
       stroke-linejoin="round"
       stroke-linecap="round"
       stroke-width="0.1"
       stroke="currentColor"
       x1="0.050000001"
       y1="0"
       x2="14.5547"
       y2="0"
       id="line6" />
    <line
       transform="translate(14.454,7.6093)"
       stroke-linejoin="round"
       stroke-linecap="round"
       stroke-width="0.1"
       stroke="currentColor"
       x1="0.050000001"
       y1="0"
       x2="14.5547"
       y2="0"
       id="line8" />
    <line
       transform="translate(14.454,6.6093)"
       stroke-linejoin="round"
       stroke-linecap="round"
       stroke-width="0.1"
       stroke="currentColor"
       x1="0.050000001"
       y1="0"
       x2="14.5547"
       y2="0"
       id="line10" />
    <line
       transform="translate(14.454,5.6093)"
       stroke-linejoin="round"
       stroke-linecap="round"
       stroke-width="0.1"
       stroke="currentColor"
       x1="0.050000001"
       y1="0"
       x2="14.5547"
       y2="0"
       id="line12" />
  </g>
  <rect
     x="8.2786999"
     y="6.6789999"
     width="1.9563"
     height="0.2"
     ry="0.1"
     fill="currentColor"
     id="rect16" />
  <rect
     x="13.3789"
     y="2.779"
     width="0.13"
     height="3.3139"
     ry="0.039999999"
     fill="currentColor"
     id="rect18" />
  <path
     d="m 13.0767,5.735 c 0.22,0 0.432,0.112 0.432,0.356 0,0.284 -0.22,0.484 -0.408,0.596 -0.14,0.084 -0.3,0.136 -0.464,0.136 -0.22,0 -0.432,-0.112 -0.432,-0.356 0,-0.284 0.22,-0.484 0.408,-0.596 0.14,-0.084 0.3,-0.136 0.464,-0.136 z"
     fill="currentColor"
     id="path20"
     style="stroke-width:0.004" />
  <polygon
     transform="translate(13.5089,2.819)"
     stroke-linejoin="round"
     stroke-linecap="round"
     stroke-width="0.065"
     fill="currentColor"
     stroke="currentColor"
     points="1.0105,0.3186 -0.0325,-0.0203 -0.0325,0.4614 1.0105,0.8003 "
     id="polygon22" />
  <rect
     x="9.7789001"
     y="3.279"
     width="0.13"
     height="3.3139"
     ry="0.039999999"
     fill="currentColor"
     id="rect24" />
  <path
     d="m 5.784,3.311 h 0.468 c 0,0.192 0.108,0.376 0.288,0.376 0.032,0 0.048,0.02 0.048,0.044 0,0.024 -0.016,0.048 -0.048,0.048 -0.176,0 -0.348,-0.052 -0.524,-0.052 -0.176,0 -0.348,0.052 -0.524,0.052 -0.032,0 -0.048,-0.024 -0.048,-0.048 0,-0.024 0.016,-0.044 0.048,-0.044 0.18,0 0.292,-0.184 0.292,-0.376 z M 5.816,2.551 C 5.904,2.495 5.992,2.435 6.056,2.351 6.1,2.291 6.132,2.219 6.164,2.151 6.172,2.135 6.184,2.127 6.2,2.127 c 0.024,0 0.052,0.02 0.052,0.056 v 0.98 H 6.54 c 0.04,0 0.06,0.028 0.06,0.056 0,0.028 -0.02,0.06 -0.06,0.06 H 6.252 V 3.311 H 5.784 V 3.279 H 5.116 C 5.024,3.279 4.992,3.223 4.992,3.187 4.992,3.175 4.996,3.167 5,3.163 5.32,2.791 5.552,2.335 5.552,1.843 5.552,1.803 5.58,1.767 5.616,1.779 5.708,1.807 5.804,1.831 5.9,1.831 5.996,1.831 6.092,1.807 6.184,1.779 6.24,1.763 6.276,1.815 6.252,1.843 L 5.116,3.163 H 5.784 V 2.639 c 0,-0.032 0.004,-0.068 0.032,-0.088 z"
     fill="currentColor"
     id="path26"
     style="stroke-width:0.004" />
  <path
     d="m 5.784,5.3254 h 0.468 c 0,0.192 0.108,0.376 0.288,0.376 0.032,0 0.048,0.02 0.048,0.044 0,0.024 -0.016,0.048 -0.048,0.048 -0.176,0 -0.348,-0.052 -0.524,-0.052 -0.176,0 -0.348,0.052 -0.524,0.052 -0.032,0 -0.048,-0.024 -0.048,-0.048 0,-0.024 0.016,-0.044 0.048,-0.044 0.18,0 0.292,-0.184 0.292,-0.376 z m 0.032,-0.76 c 0.088,-0.056 0.176,-0.116 0.24,-0.2 0.044,-0.06 0.076,-0.132 0.108,-0.2 0.008,-0.016 0.02,-0.024 0.036,-0.024 0.024,0 0.052,0.02 0.052,0.056 v 0.98 H 6.54 c 0.04,0 0.06,0.028 0.06,0.056 0,0.028 -0.02,0.06 -0.06,0.06 H 6.252 v 0.032 H 5.784 V 5.2934 H 5.116 c -0.092,0 -0.124,-0.056 -0.124,-0.092 0,-0.012 0.004,-0.02 0.008,-0.024 0.32,-0.372 0.552,-0.828 0.552,-1.32 0,-0.04 0.028,-0.076 0.064,-0.064 0.092,0.028 0.188,0.052 0.284,0.052 0.096,0 0.192,-0.024 0.284,-0.052 0.056,-0.016 0.092,0.036 0.068,0.064 l -1.136,1.32 h 0.668 v -0.524 c 0,-0.032 0.004,-0.068 0.032,-0.088 z"
     fill="currentColor"
     id="path28"
     style="stroke-width:0.004" />
  <path
     d="M 1.864,7.319 H 1.84 c -0.432,0 -0.78,-0.352 -0.78,-0.788 0,-0.232 0.212,-0.412 0.448,-0.412 0.216,0 0.38,0.188 0.38,0.412 0,0.208 -0.172,0.38 -0.38,0.38 -0.044,0 -0.084,-0.008 -0.124,-0.024 0.104,0.156 0.272,0.26 0.468,0.26 H 1.868 Z M 2.644,5.591 C 2.916,5.495 3.096,5.211 3.096,4.935 3.096,4.575 2.832,4.219 2.404,4.175 2.5,4.639 2.588,5.099 2.644,5.591 Z M 1.096,4.667 c 0,0.54 0.516,0.988 1.056,0.988 0.112,0 0.22,-0.008 0.328,-0.024 C 2.424,5.123 2.332,4.651 2.228,4.175 1.912,4.207 1.732,4.419 1.732,4.651 c 0,0.176 0.1,0.364 0.324,0.492 0.02,0.02 0.028,0.04 0.028,0.06 0,0.044 -0.04,0.088 -0.088,0.088 C 1.984,5.291 1.972,5.287 1.96,5.283 1.64,5.111 1.492,4.823 1.492,4.543 1.492,4.191 1.724,3.847 2.132,3.755 2.076,3.523 2.016,3.287 1.948,3.055 1.52,3.539 1.096,4.027 1.096,4.667 Z M 2.14,5.827 C 1.388,5.827 0.808,5.139 0.808,4.331 0.808,3.623 1.332,3.107 1.8,2.567 1.724,2.319 1.652,2.067 1.62,1.807 1.596,1.599 1.592,1.391 1.592,1.183 c 0,-0.46 0.22,-0.896 0.596,-1.168 0.024,-0.02 0.056,-0.02 0.08,0 0.284,0.336 0.532,0.98 0.532,1.432 0,0.572 -0.344,1.02 -0.72,1.456 0.084,0.272 0.156,0.552 0.224,0.828 0.016,0 0.036,-0.004 0.052,-0.004 0.62,0 1.024,0.512 1.024,1.044 0,0.304 -0.132,0.616 -0.428,0.84 C 2.864,5.679 2.764,5.723 2.66,5.755 2.672,5.895 2.68,6.035 2.68,6.175 2.68,6.251 2.676,6.331 2.672,6.407 2.644,6.883 2.32,7.307 1.864,7.319 L 1.868,7.147 C 2.24,7.139 2.48,6.779 2.504,6.383 2.508,6.311 2.512,6.235 2.512,6.163 2.512,6.039 2.508,5.919 2.496,5.795 2.38,5.815 2.264,5.827 2.14,5.827 Z M 2.512,1.115 c 0,-0.22 -0.016,-0.316 -0.08,-0.516 -0.396,0.192 -0.648,0.596 -0.648,1.036 0,0.296 0.072,0.532 0.144,0.776 0.32,-0.388 0.584,-0.792 0.584,-1.296 z"
     fill="currentColor"
     id="path30"
     style="stroke-width:0.004" />
  <path
     d="m 9.4767,6.235 c 0.22,0 0.432,0.112 0.432,0.356 0,0.284 -0.22,0.484 -0.408,0.596 -0.14,0.084 -0.3,0.136 -0.464,0.136 -0.22,0 -0.432,-0.112 -0.432,-0.356 0,-0.284 0.22,-0.484 0.408,-0.596 0.14,-0.084 0.3,-0.136 0.464,-0.136 z"
     fill="currentColor"
     id="path32"
     style="stroke-width:0.004" />
</svg>
